tools/download-figma-icons/icons/outlined-medium/paperless.svg

<svg width="24" height="24" viewBox="0 0 24 24" fill="none" xmlns="http://www.w3.org/2000/svg">
<path fill-rule="evenodd" clip-rule="evenodd" d="M1.5 11.958C1.5 9.34499 2.4705 6.95774 4.06125 5.12324L6.03 7.09199V17.1622C6.03 17.988 6.702 18.66 7.52775 18.66H16.3013C16.6635 18.66 16.9912 18.5257 17.25 18.3112L18.7935 19.854C16.9575 21.4447 14.571 22.4152 11.958 22.4152C6.19125 22.4152 1.5 17.724 1.5 11.958ZM13.9507 8.54701V7.25926L15.2385 8.54701H13.9507ZM16.098 17.16L7.53 17.1623L7.5285 8.58975L16.098 17.16ZM7.52772 6.46799V6.19874H12.4507V9.29699C12.4507 9.71174 12.7867 10.047 13.2007 10.047H16.299L16.3005 15.2415L7.52772 6.46799ZM22.4152 11.958C22.4152 14.5717 21.4447 16.959 19.854 18.7935L17.799 16.7393V9.297H17.7922C17.7915 9.102 17.7225 8.91075 17.5792 8.76675L13.731 4.9185C13.5877 4.77525 13.3957 4.7055 13.2007 4.7055V4.69875H7.52774C7.04549 4.69875 6.62024 4.932 6.34574 5.28675L5.12174 4.062C6.95699 2.47125 9.34349 1.5 11.958 1.5C17.724 1.5 22.4152 6.192 22.4152 11.958ZM11.958 0C5.3535 0 0 5.3535 0 11.958C0 18.5618 5.3535 23.9152 11.958 23.9152C18.5618 23.9152 23.9152 18.5618 23.9152 11.958C23.9152 5.3535 18.5618 0 11.958 0Z" fill="black"/>
</svg>

<svg width="24" height="24" viewBox="0 0 24 24" fill="none" xmlns="http://www.w3.org/2000/svg"><path fill-rule="evenodd" clip-rule="evenodd" d="M1.5 11.958c0-2.613.97-5 2.561-6.835L6.03 7.092v10.07a1.5 1.5 0 0 0 1.498 1.498H16.3c.363 0 .69-.134.949-.349l1.544 1.543a10.407 10.407 0 0 1-6.836 2.561C6.191 22.415 1.5 17.724 1.5 11.958Zm12.45-3.411V7.259l1.289 1.288H13.95Zm2.148 8.613-8.568.002-.002-8.572 8.57 8.57ZM7.528 6.468v-.27h4.923v3.099c0 .415.336.75.75.75h3.098l.002 5.194-8.773-8.773Zm14.887 5.49c0 2.614-.97 5.001-2.561 6.836l-2.055-2.055V9.297h-.007a.748.748 0 0 0-.213-.53l-3.848-3.848a.744.744 0 0 0-.53-.213v-.007H7.528a1.49 1.49 0 0 0-1.182.588L5.122 4.062A10.405 10.405 0 0 1 11.958 1.5c5.766 0 10.457 4.692 10.457 10.458ZM11.958 0C5.354 0 0 5.354 0 11.958s5.354 11.957 11.958 11.957 11.957-5.353 11.957-11.957C23.915 5.354 18.562 0 11.958 0Z" fill="currentColor"/></svg>
